X: 1
T: Bucklebury, The
M: 4/4
L: 1/8
R: hornpipe
K: Gmaj
|:BA|&quot;G&quot;~G2 FG BGFG|dGFG BGFG|&quot;Am&quot;E2 cB~A2 FG|&quot;D&quot;A2 FA dcBA|
&quot;G&quot;~G2 FG BGFG|dGFG Bdef|~g2 fa &quot;C&quot;ge&quot;D&quot;dc|&quot;G&quot;B2G2G2:|
|:Bc|&quot;G&quot;~d2 Bd gdBd|&quot;C&quot;~e2 ce gece|&quot;G&quot;~d2 Bd gdcB|&quot;D&quot;~A2 FA DAFA|
&quot;G&quot;~B2 GB dgfg|&quot;C&quot;egdg &quot;Am&quot;cgBg|&quot;D&quot;A2 ag ~f2 ef|&quot;G&quot;g2 G2 G2:|
